src/assets/images/referall-not.svg

<svg width="212" height="212" viewBox="0 0 212 212" fill="none" xmlns="http://www.w3.org/2000/svg">
<circle cx="106" cy="106" r="106" fill="white" fill-opacity="0.05"/>
<path d="M75.773 175.637C75.1793 173.423 72.632 170.565 68.7362 171.608L52.0819 176.068C48.7585 176.958 47.3407 180.601 48.0036 183.074C48.6715 185.566 50.8677 188.221 55.0404 187.104L71.7131 182.639C75.8674 181.526 76.3666 177.852 75.773 175.637ZM23.9798 71.1688L40.634 66.7086C44.7884 65.596 45.3011 61.8984 44.7124 59.7023C44.1187 57.4878 41.5714 54.6295 37.6756 55.6729L21.0213 60.1331C17.6979 61.0232 16.2801 64.6665 16.943 67.1394C17.6294 69.6258 19.8255 72.2814 23.9798 71.1688Z" fill="white"/>
<path d="M75.773 175.637C75.1793 173.423 72.632 170.565 68.7362 171.608L52.0819 176.068C48.7585 176.958 47.3407 180.601 48.0036 183.074C48.6715 185.566 50.8677 188.221 55.0404 187.104L71.7131 182.639C75.8674 181.526 76.3666 177.852 75.773 175.637ZM23.9798 71.1688L40.634 66.7086C44.7884 65.596 45.3011 61.8984 44.7124 59.7023C44.1187 57.4878 41.5714 54.6295 37.6756 55.6729L21.0213 60.1331C17.6979 61.0232 16.2801 64.6665 16.943 67.1394C17.6294 69.6258 19.8255 72.2814 23.9798 71.1688Z" fill="url(#paint0_linear_2201_4448)"/>
<path d="M149.755 7.89362L33.2305 39.1004C29.0761 40.213 26.0115 45.4643 27.1247 49.6165L27.8668 52.3847L36.1939 50.1545C42.5823 48.4436 48.473 51.5933 50.2491 58.2184C52.0251 64.8435 48.4993 70.515 42.1109 72.2259L33.7838 74.456L38.2215 91.0096L46.5486 88.7794C52.9371 87.0685 58.8277 90.2182 60.6038 96.8433C62.3799 103.468 58.8541 109.14 52.4656 110.851L44.1385 113.081L48.5862 129.671L56.9133 127.441C63.3017 125.73 69.1923 128.88 70.9684 135.505C72.7445 142.13 69.2187 147.802 62.8303 149.513L54.5032 151.743L58.9409 168.296L67.268 166.066C73.6564 164.355 79.5471 167.505 81.3232 174.13C83.0993 180.755 79.5734 186.427 73.185 188.138L64.8579 190.368L65.6 193.136C66.7082 197.27 71.9757 200.309 76.1485 199.192L192.673 167.985C196.827 166.872 199.891 161.621 198.778 157.469L160.303 13.9495C159.195 9.81573 153.927 6.77609 149.755 7.89362Z" fill="white"/>
<path d="M149.755 7.89362L33.2305 39.1004C29.0761 40.213 26.0115 45.4643 27.1247 49.6165L27.8668 52.3847L36.1939 50.1545C42.5823 48.4436 48.473 51.5933 50.2491 58.2184C52.0251 64.8435 48.4993 70.515 42.1109 72.2259L33.7838 74.456L38.2215 91.0096L46.5486 88.7794C52.9371 87.0685 58.8277 90.2182 60.6038 96.8433C62.3799 103.468 58.8541 109.14 52.4656 110.851L44.1385 113.081L48.5862 129.671L56.9133 127.441C63.3017 125.73 69.1923 128.88 70.9684 135.505C72.7445 142.13 69.2187 147.802 62.8303 149.513L54.5032 151.743L58.9409 168.296L67.268 166.066C73.6564 164.355 79.5471 167.505 81.3232 174.13C83.0993 180.755 79.5734 186.427 73.185 188.138L64.8579 190.368L65.6 193.136C66.7082 197.27 71.9757 200.309 76.1485 199.192L192.673 167.985C196.827 166.872 199.891 161.621 198.778 157.469L160.303 13.9495C159.195 9.81573 153.927 6.77609 149.755 7.89362Z" fill="url(#paint1_linear_2201_4448)"/>
<path d="M44.6961 148.454L61.3503 143.994C65.5046 142.882 66.0173 139.184 65.4286 136.988C64.8349 134.773 62.2876 131.915 58.3918 132.958L41.7376 137.419C38.4141 138.309 36.9963 141.952 37.6593 144.425C38.3456 146.911 40.5417 149.567 44.6961 148.454ZM34.3364 109.811L50.9906 105.351C55.1449 104.238 55.6626 100.559 55.0689 98.3445C54.4752 96.13 51.9279 93.2717 48.0321 94.3151L31.3779 98.7753C28.0544 99.6653 26.6366 103.309 27.2996 105.782C27.9859 108.268 30.182 110.924 34.3364 109.811Z" fill="white"/>
<path d="M44.6961 148.454L61.3503 143.994C65.5046 142.882 66.0173 139.184 65.4286 136.988C64.8349 134.773 62.2876 131.915 58.3918 132.958L41.7376 137.419C38.4141 138.309 36.9963 141.952 37.6593 144.425C38.3456 146.911 40.5417 149.567 44.6961 148.454ZM34.3364 109.811L50.9906 105.351C55.1449 104.238 55.6626 100.559 55.0689 98.3445C54.4752 96.13 51.9279 93.2717 48.0321 94.3151L31.3779 98.7753C28.0544 99.6653 26.6366 103.309 27.2996 105.782C27.9859 108.268 30.182 110.924 34.3364 109.811Z" fill="url(#paint2_linear_2201_4448)"/>
<g filter="url(#filter0_d_2201_4448)">
<path d="M112.04 89.9549C119.818 87.8753 124.437 79.8873 122.356 72.1132C120.275 64.3391 112.283 59.7228 104.505 61.8024C96.7272 63.882 92.1086 71.87 94.1892 79.6441C96.2699 87.4182 104.262 92.0345 112.04 89.9549Z" fill="white"/>
<path fill-rule="evenodd" clip-rule="evenodd" d="M137.025 119.858C131.216 121.411 128.311 122.188 126.025 120.864C123.737 119.545 122.96 116.642 121.406 110.836C119.852 105.029 119.075 102.126 120.399 99.8414C121.718 97.5541 124.623 96.7775 130.432 95.2243C136.242 93.671 139.146 92.8944 141.432 94.2177C143.721 95.5365 144.498 98.4398 146.052 104.246C147.606 110.053 148.383 112.956 147.059 115.241C145.739 117.528 142.835 118.304 137.025 119.858ZM134.316 101.517C134.17 100.972 133.814 100.508 133.326 100.227C132.839 99.9447 132.259 99.8682 131.714 100.014C131.17 100.159 130.706 100.515 130.424 101.003C130.142 101.49 130.065 102.07 130.211 102.614L131.127 106.038L127.701 106.954C127.157 107.1 126.693 107.455 126.411 107.943C126.129 108.431 126.052 109.01 126.198 109.555C126.343 110.099 126.699 110.563 127.187 110.845C127.675 111.126 128.255 111.203 128.799 111.057L132.225 110.141L133.142 113.565C133.287 114.11 133.643 114.574 134.131 114.855C134.619 115.137 135.199 115.214 135.743 115.068C136.288 114.923 136.752 114.567 137.034 114.079C137.316 113.592 137.393 113.012 137.247 112.468L136.331 109.044L139.756 108.128C140.301 107.982 140.765 107.627 141.047 107.139C141.329 106.651 141.405 106.072 141.26 105.527C141.114 104.983 140.758 104.519 140.27 104.237C139.782 103.956 139.203 103.879 138.658 104.025L135.232 104.941L134.316 101.517Z" fill="white"/>
<path d="M126.125 90.729C124.465 91.1919 122.929 91.6703 121.625 92.2113C119.443 93.1228 117.158 94.5104 115.661 97.1054C114.159 99.6979 114.097 102.369 114.4 104.713C114.669 106.82 115.334 109.305 116.041 111.944L116.203 112.549C116.909 115.189 117.574 117.673 118.393 119.634C119.029 121.164 119.904 122.744 121.266 124.069L121.178 124.093C93.0117 131.624 91.1139 124.533 88.7734 115.788C86.433 107.043 97.1468 96.5802 112.702 92.4212C117.371 91.173 121.946 90.6323 126.125 90.729Z" fill="white"/>
</g>
<defs>
<filter id="filter0_d_2201_4448" x="78.4531" y="55.3037" width="79.2812" height="85.9697" filterUnits="userSpaceOnUse" color-interpolation-filters="sRGB">
<feFlood flood-opacity="0" result="BackgroundImageFix"/>
<feColorMatrix in="SourceAlpha" type="matrix" values="0 0 0 0 0 0 0 0 0 0 0 0 0 0 0 0 0 0 127 0" result="hardAlpha"/>
<feOffset dy="4"/>
<feGaussianBlur stdDeviation="5"/>
<feComposite in2="hardAlpha" operator="out"/>
<feColorMatrix type="matrix" values="0 0 0 0 0.243137 0 0 0 0 0.321569 0 0 0 0 0.737255 0 0 0 1 0"/>
<feBlend mode="normal" in2="BackgroundImageFix" result="effect1_dropShadow_2201_4448"/>
<feBlend mode="normal" in="SourceGraphic" in2="effect1_dropShadow_2201_4448" result="shape"/>
</filter>
<linearGradient id="paint0_linear_2201_4448" x1="53.1458" y1="187.611" x2="99.6726" y2="159.016" gradientUnits="userSpaceOnUse">
<stop stop-color="#0073FF"/>
<stop offset="1" stop-color="#00C2FF"/>
</linearGradient>
<linearGradient id="paint1_linear_2201_4448" x1="85.3092" y1="196.813" x2="166.048" y2="34.7027" gradientUnits="userSpaceOnUse">
<stop stop-color="#0073FF"/>
<stop offset="1" stop-color="#00C2FF"/>
</linearGradient>
<linearGradient id="paint2_linear_2201_4448" x1="42.799" y1="148.962" x2="70.5644" y2="113.126" gradientUnits="userSpaceOnUse">
<stop stop-color="#0073FF"/>
<stop offset="1" stop-color="#00C2FF"/>
</linearGradient>
</defs>
</svg>

<svg width="212" height="212" fill="none" xmlns="http://www.w3.org/2000/svg"><circle cx="106" cy="106" r="106" fill="#fff" fill-opacity=".05"/><path d="M75.773 175.637c-.594-2.214-3.141-5.072-7.037-4.029l-16.654 4.46c-3.324.89-4.741 4.533-4.078 7.006.668 2.492 2.864 5.147 7.036 4.03l16.673-4.465c4.154-1.113 4.654-4.787 4.06-7.002ZM23.98 71.169l16.654-4.46c4.154-1.113 4.667-4.81 4.078-7.007-.593-2.214-3.14-5.072-7.036-4.03L21.02 60.134c-3.323.89-4.74 4.533-4.078 7.006.686 2.487 2.883 5.142 7.037 4.03Z" fill="#fff"/><path d="M75.773 175.637c-.594-2.214-3.141-5.072-7.037-4.029l-16.654 4.46c-3.324.89-4.741 4.533-4.078 7.006.668 2.492 2.864 5.147 7.036 4.03l16.673-4.465c4.154-1.113 4.654-4.787 4.06-7.002ZM23.98 71.169l16.654-4.46c4.154-1.113 4.667-4.81 4.078-7.007-.593-2.214-3.14-5.072-7.036-4.03L21.02 60.134c-3.323.89-4.74 4.533-4.078 7.006.686 2.487 2.883 5.142 7.037 4.03Z" fill="url(#a)"/><path d="M149.755 7.894 33.231 39.1c-4.155 1.113-7.22 6.364-6.106 10.517l.742 2.768 8.327-2.23c6.388-1.711 12.279 1.438 14.055 8.063 1.776 6.626-1.75 12.297-8.138 14.008l-8.327 2.23 4.438 16.554 8.327-2.23c6.388-1.712 12.279 1.438 14.055 8.063 1.776 6.625-1.75 12.297-8.138 14.008l-8.328 2.23 4.448 16.59 8.327-2.23c6.389-1.711 12.28 1.439 14.055 8.064 1.776 6.625-1.75 12.297-8.138 14.008l-8.327 2.23 4.438 16.553 8.327-2.23c6.388-1.711 12.28 1.439 14.055 8.064 1.776 6.625-1.75 12.297-8.138 14.008l-8.327 2.23.742 2.768c1.108 4.134 6.376 7.173 10.549 6.056l116.524-31.207c4.154-1.113 7.218-6.364 6.105-10.516l-38.475-143.52c-1.108-4.133-6.376-7.173-10.548-6.055Z" fill="#fff"/><path d="M149.755 7.894 33.231 39.1c-4.155 1.113-7.22 6.364-6.106 10.517l.742 2.768 8.327-2.23c6.388-1.711 12.279 1.438 14.055 8.063 1.776 6.626-1.75 12.297-8.138 14.008l-8.327 2.23 4.438 16.554 8.327-2.23c6.388-1.712 12.279 1.438 14.055 8.063 1.776 6.625-1.75 12.297-8.138 14.008l-8.328 2.23 4.448 16.59 8.327-2.23c6.389-1.711 12.28 1.439 14.055 8.064 1.776 6.625-1.75 12.297-8.138 14.008l-8.327 2.23 4.438 16.553 8.327-2.23c6.388-1.711 12.28 1.439 14.055 8.064 1.776 6.625-1.75 12.297-8.138 14.008l-8.327 2.23.742 2.768c1.108 4.134 6.376 7.173 10.549 6.056l116.524-31.207c4.154-1.113 7.218-6.364 6.105-10.516l-38.475-143.52c-1.108-4.133-6.376-7.173-10.548-6.055Z" fill="url(#b)"/><path d="m44.696 148.454 16.654-4.46c4.155-1.112 4.667-4.81 4.079-7.006-.594-2.215-3.141-5.073-7.037-4.03l-16.654 4.461c-3.324.89-4.742 4.533-4.079 7.006.687 2.486 2.883 5.142 7.037 4.029Zm-10.36-38.643 16.655-4.46c4.154-1.113 4.672-4.792 4.078-7.007-.594-2.214-3.141-5.072-7.037-4.029l-16.654 4.46c-3.324.89-4.741 4.534-4.078 7.007.686 2.486 2.882 5.142 7.036 4.029Z" fill="#fff"/><path d="m44.696 148.454 16.654-4.46c4.155-1.112 4.667-4.81 4.079-7.006-.594-2.215-3.141-5.073-7.037-4.03l-16.654 4.461c-3.324.89-4.742 4.533-4.079 7.006.687 2.486 2.883 5.142 7.037 4.029Zm-10.36-38.643 16.655-4.46c4.154-1.113 4.672-4.792 4.078-7.007-.594-2.214-3.141-5.072-7.037-4.029l-16.654 4.46c-3.324.89-4.741 4.534-4.078 7.007.686 2.486 2.882 5.142 7.036 4.029Z" fill="url(#c)"/><g filter="url(#d)" fill="#fff"><path d="M112.04 89.955c7.778-2.08 12.397-10.068 10.316-17.842-2.081-7.774-10.073-12.39-17.851-10.31-7.778 2.079-12.396 10.067-10.316 17.841 2.08 7.774 10.073 12.39 17.851 10.31Z"/><path fill-rule="evenodd" clip-rule="evenodd" d="M137.025 119.858c-5.809 1.553-8.714 2.33-11 1.006-2.288-1.319-3.065-4.222-4.619-10.028-1.554-5.807-2.331-8.71-1.007-10.995 1.319-2.287 4.224-3.063 10.033-4.617 5.81-1.553 8.714-2.33 11-1.006 2.289 1.319 3.066 4.222 4.62 10.028 1.554 5.807 2.331 8.71 1.007 10.995-1.32 2.287-4.224 3.063-10.034 4.617Zm-2.709-18.341a2.121 2.121 0 0 0-.99-1.29 2.121 2.121 0 0 0-2.902.776 2.12 2.12 0 0 0-.213 1.611l.916 3.424-3.426.916a2.125 2.125 0 0 0-.514 3.891 2.127 2.127 0 0 0 1.612.212l3.426-.916.917 3.424a2.123 2.123 0 0 0 3.892.514 2.12 2.12 0 0 0 .213-1.611l-.916-3.424 3.425-.916a2.124 2.124 0 1 0-1.098-4.103l-3.426.916-.916-3.424Z"/><path d="M126.125 90.729c-1.66.463-3.196.941-4.5 1.482-2.182.912-4.467 2.3-5.964 4.894-1.502 2.593-1.564 5.264-1.261 7.608.269 2.107.934 4.592 1.641 7.231l.162.605c.706 2.64 1.371 5.124 2.19 7.085.636 1.53 1.511 3.11 2.873 4.435l-.088.024c-28.166 7.531-30.064.44-32.405-8.305-2.34-8.745 8.374-19.208 23.929-23.367 4.669-1.248 9.244-1.789 13.423-1.692Z"/></g><defs><linearGradient id="a" x1="53.146" y1="187.611" x2="99.673" y2="159.016" gradientUnits="userSpaceOnUse"><stop stop-color="#0073FF"/><stop offset="1" stop-color="#00C2FF"/></linearGradient><linearGradient id="b" x1="85.309" y1="196.813" x2="166.048" y2="34.703" gradientUnits="userSpaceOnUse"><stop stop-color="#0073FF"/><stop offset="1" stop-color="#00C2FF"/></linearGradient><linearGradient id="c" x1="42.799" y1="148.962" x2="70.564" y2="113.126" gradientUnits="userSpaceOnUse"><stop stop-color="#0073FF"/><stop offset="1" stop-color="#00C2FF"/></linearGradient><filter id="d" x="78.453" y="55.304" width="79.281" height="85.97" filterUnits="userSpaceOnUse" color-interpolation-filters="sRGB"><feFlood flood-opacity="0" result="BackgroundImageFix"/><feColorMatrix in="SourceAlpha" values="0 0 0 0 0 0 0 0 0 0 0 0 0 0 0 0 0 0 127 0" result="hardAlpha"/><feOffset dy="4"/><feGaussianBlur stdDeviation="5"/><feComposite in2="hardAlpha" operator="out"/><feColorMatrix values="0 0 0 0 0.243137 0 0 0 0 0.321569 0 0 0 0 0.737255 0 0 0 1 0"/><feBlend in2="BackgroundImageFix" result="effect1_dropShadow_2201_4448"/><feBlend in="SourceGraphic" in2="effect1_dropShadow_2201_4448" result="shape"/></filter></defs></svg>
